; generated by PrusaSlicer 2.5.2+linux-x64-GTK3 on 2024-02-03 at 20:34:17 UTC


;
;
; 

; external perimeters extrusion width = 0.45mm
; perimeters extrusion width = 0.45mm
; infill extrusion width = 0.45mm
; solid infill extrusion width = 0.45mm
; top infill extrusion width = 0.40mm
; first layer extrusion width = 0.42mm

; external perimeters extrusion width = 0.45mm
; perimeters extrusion width = 0.45mm
; infill extrusion width = 0.45mm
; solid infill extrusion width = 0.45mm
; top infill extrusion width = 0.40mm
; first layer extrusion width = 0.42mm

M73 P0 R52
M73 Q0 S52
M201 X1000 Y1000 Z200 E5000 ; sets maximum accelerations, mm/sec^2
M203 X200 Y200 Z12 E120 ; sets maximum feedrates, mm / sec
M204 P1250 R1250 T1250 ; sets acceleration (P, T) and retract acceleration (R), mm/sec^2
M205 X8.00 Y8.00 Z0.40 E4.50 ; sets the jerk limits, mm/sec
M205 S0 T0 ; sets the minimum extruding and travel feed rate, mm/sec
M107
;TYPE:Custom
M862.3 P "MK3S" ; printer model check
M862.1 P0.4 ; nozzle diameter check
M115 U3.12.2 ; tell printer latest fw version
G90 ; use absolute coordinates
M83 ; extruder relative mode
M104 S215 ; set extruder temp
M140 S60 ; set bed temp
M190 S60 ; wait for bed temp
M109 S215 ; wait for extruder temp
G28 W ; home all without mesh bed level
G80 ; mesh bed leveling

G1 Z0.2 F720
G1 Y-3 F1000 ; go outside print area
G92 E0
G1 X60 E9 F1000 ; intro line
G1 X100 E12.5 F1000 ; intro line

G92 E0
M221 S95

; Don't change E values below. Excessive value can damage the printer.
M907 E430 ; set extruder motor current
G21 ; set units to millimeters
G90 ; use absolute coordinates
M83 ; use relative distances for extrusion
M900 K0.05 ; Filament gcode LA 1.5
M900 K30 ; Filament gcode LA 1.0
M107
;LAYER_CHANGE
;Z:0.2
;HEIGHT:0.2
;BEFORE_LAYER_CHANGE
G92 E0.0
;0.2


G1 E-.8 F2100
G1 Z.4 F720
;AFTER_LAYER_CHANGE
;0.2
G1 X110.007 Y74.436 F10800
G1 Z.2 F720
G1 E.8 F2100
M204 S800
;TYPE:Skirt/Brim
;WIDTH:0.42
G1 F1200
G1 X111.15 Y73.293 E.05067
G1 X111.984 Y72.748 E.03122
G1 X112.892 Y72.34 E.03122
G1 X113.853 Y72.08 E.03122
G1 X115.03 Y71.965 E.03707
G1 X135.062 Y71.967 E.62812
G1 X167.937 Y73.241 E1.03152
G1 X168.841 Y73.342 E.02852
G1 X170.158 Y73.77 E.04343
G1 X171.225 Y74.425 E.03925
G1 X172.203 Y75.405 E.04342
G1 X172.687 Y76.14 E.02758
G1 X173.158 Y77.269 E.03835
G1 X173.348 Y78.201 E.02982
G1 X173.391 Y79.049 E.02662
G1 X173.417 Y132.373 E1.67194
G1 X173.308 Y133.29 E.02895
G1 X172.874 Y134.623 E.04398
G1 X172.218 Y135.692 E.03931
G1 X171.234 Y136.674 E.0436
G1 X170.497 Y137.159 E.02767
G1 X169.693 Y137.523 E.02766
G1 X168.842 Y137.757 E.02766
G1 X167.764 Y137.865 E.03397
G1 X134.984 Y138.051 E1.02782
G1 X115.03 Y138.051 E.62566
G1 X113.853 Y137.937 E.03708
G1 X112.315 Y137.437 E.05068
G1 X111.15 Y136.723 E.04287
G1 X110.007 Y135.58 E.05068
G1 X109.462 Y134.746 E.03122
G1 X109.054 Y133.838 E.03122
G1 X108.793 Y132.877 E.03122
G1 X108.679 Y131.7 E.03706
G1 X108.678 Y78.316 E1.67383
G1 X108.793 Y77.138 E.03709
G1 X109.293 Y75.601 E.05067
G1 X109.976 Y74.487 E.04099
M204 S1000
; printing object case_bot.stl id:0 copy 0
;WIPE_START
G1 F8640
G1 X111.15 Y73.293 E-.38663
G1 X111.984 Y72.748 E-.22992
G1 X112.55 Y72.494 E-.14345
;WIPE_END
G1 E-.04 F2100
G1 Z.6 F720
G1 X169.44 Y78.59 F10800
G1 Z.2 F720
G1 E.8 F2100
M204 S800
;TYPE:Perimeter
;WIDTH:0.419999
G1 F1200
G1 X169.5 Y132.262 E1.68284
G1 X169.398 Y132.769 E.01621
G1 X169.159 Y133.233 E.01637
G1 X168.781 Y133.609 E.01672
G1 X168.306 Y133.85 E.01671
G1 X167.69 Y133.94 E.0195
G1 X148.001 Y133.94 E.61734
G1 X147.832 Y133.932 E.00529
G1 X147.312 Y133.85 E.01652
G1 X146.837 Y133.609 E.0167
G1 X146.459 Y133.233 E.01671
G1 X146.22 Y132.769 E.01636
G1 X146.118 Y132.262 E.01622
G1 X146.178 Y78.586 E1.68298
G1 X146.291 Y78.291 E.00989
G1 X146.5 Y77.871 E.01469
G1 X146.865 Y77.504 E.01623
G1 X147.326 Y77.268 E.01624
G1 X147.929 Y77.18 E.0191
G1 X167.724 Y77.189 E.62068
G1 X168.039 Y77.207 E.00987
G1 X168.531 Y77.368 E.01625
G1 X168.95 Y77.673 E.01624
G1 X169.249 Y78.086 E.01598
G1 X169.418 Y78.534 E.01501
M204 S1000
G1 X169.817 Y78.521 F10800
M204 S800
;TYPE:External perimeter
G1 F1200
G1 X169.877 Y132.054 E1.67851
G1 X169.833 Y132.518 E.01461
G1 X169.691 Y133.046 E.01715
G1 X169.464 Y133.456 E.01468
G1 X169.13 Y133.807 E.01518
G1 X168.724 Y134.085 E.01545
G1 X168.262 Y134.248 E.01534
G1 X167.705 Y134.317 E.01761
G1 X148.001 Y134.317 E.61781
G1 X147.803 Y134.308 E.00622
M73 P1 R52
M73 Q1 S52
G1 X147.195 Y134.21 E.0193
G1 X146.756 Y134.001 E.01524
G1 X146.366 Y133.704 E.01537
G1 X146.072 Y133.324 E.01506
G1 X145.857 Y132.88 E.01547
G1 X145.741 Y132.299 E.01858
G1 X145.801 Y78.516 E1.68633
G1 X145.962 Y78.095 E.01413
M73 P1 R51
G1 X146.193 Y77.65 E.01572
G1 X146.517 Y77.306 E.01482
G1 X146.914 Y77.031 E.01512
G1 X147.364 Y76.871 E.01501
G1 X147.914 Y76.803 E.01736
G1 X167.724 Y76.812 E.62115
G1 X167.902 Y76.818 E.00558
G1 X168.409 Y76.909 E.01613
G1 X168.838 Y77.114 E.01493
G1 X169.218 Y77.407 E.01503
G1 X169.589 Y77.92 E.01986
G1 X169.795 Y78.465 E.01826
M204 S1000
G1 X169.508 Y78.775 F10800
G1 X169.181 Y78.386
M204 S800
;TYPE:Solid infill
;WIDTH:0.421593
G1 F1200
G1 X168.552 Y77.779 E.02753
G1 X168.376 Y77.671 E.00649
G1 X168.186 Y77.592 E.00649
G1 X167.985 Y77.544 E.0065
G1 X167.787 Y77.528 E.00625
G1 X169.101 Y78.842 E.05847
G1 X169.101 Y79.378 E.01688
G1 X167.252 Y77.528 E.08236
G1 X166.716 Y77.528 E.01687
G1 X169.102 Y79.914 E.10624
G1 X169.102 Y80.45 E.01688
G1 X166.18 Y77.528 E.13013
G1 X165.644 Y77.527 E.01687
G1 X169.103 Y80.986 E.15401
G1 X169.104 Y81.522 E.01688
G1 X165.109 Y77.527 E.17789
G1 X164.573 Y77.527 E.01687
G1 X169.104 Y82.058 E.20178
G1 X169.105 Y82.594 E.01688
G1 X164.037 Y77.527 E.22566
G1 X163.501 Y77.526 E.01687
G1 X169.105 Y83.131 E.24955
G1 X169.106 Y83.667 E.01688
G1 X162.965 Y77.526 E.27343
G1 X162.43 Y77.526 E.01687
G1 X169.107 Y84.203 E.29732
G1 X169.107 Y84.739 E.01688
G1 X161.894 Y77.526 E.3212
G1 X161.358 Y77.525 E.01687
G1 X169.108 Y85.275 E.34508
G1 X169.108 Y85.811 E.01688
G1 X160.822 Y77.525 E.36897
G1 X160.287 Y77.525 E.01687
G1 X169.109 Y86.347 E.39285
G1 X169.11 Y86.883 E.01688
G1 X159.751 Y77.525 E.41674
G1 X159.215 Y77.524 E.01687
G1 X169.11 Y87.42 E.44062
G1 X169.111 Y87.956 E.01688
G1 X158.679 Y77.524 E.46451
G1 X158.143 Y77.524 E.01687
G1 X169.111 Y88.492 E.48839
G1 X169.112 Y89.028 E.01688
G1 X157.608 Y77.524 E.51227
G1 X157.072 Y77.523 E.01687
G1 X169.113 Y89.564 E.53616
G1 X169.113 Y90.1 E.01688
G1 X156.536 Y77.523 E.56004
G1 X156 Y77.523 E.01687
M73 Q1 S51
G1 X169.114 Y90.636 E.58393
G1 X169.114 Y91.172 E.01688
G1 X155.465 Y77.523 E.60781
G1 X154.929 Y77.522 E.01687
G1 X169.115 Y91.709 E.6317
G1 X169.116 Y92.245 E.01688
G1 X154.393 Y77.522 E.65558
G1 X153.857 Y77.522 E.01687
G1 X169.116 Y92.781 E.67946
G1 X169.117 Y93.317 E.01688
G1 X153.322 Y77.522 E.70335
G1 X152.786 Y77.521 E.01687
G1 X169.117 Y93.853 E.72723
G1 X169.118 Y94.389 E.01688
G1 X152.25 Y77.521 E.75112
G1 X151.714 Y77.521 E.01687
G1 X169.119 Y94.925 E.775
G1 X169.119 Y95.461 E.01688
G1 X151.178 Y77.521 E.79888
G1 X150.643 Y77.52 E.01687
G1 X169.12 Y95.998 E.82277
G1 X169.12 Y96.534 E.01688
G1 X150.107 Y77.52 E.84665
G1 X149.571 Y77.52 E.01687
G1 X169.121 Y97.07 E.87054
G1 X169.122 Y97.606 E.01688
M73 P2 R51
M73 Q2 S51
G1 X149.035 Y77.52 E.89442
G1 X148.5 Y77.519 E.01687
G1 X169.122 Y98.142 E.91831
G1 X169.123 Y98.678 E.01688
G1 X147.966 Y77.522 E.94207
G1 X147.631 Y77.544 E.01058
G1 X147.488 Y77.578 E.00465
G1 X169.123 Y99.214 E.96342
G1 X169.124 Y99.75 E.01688
G1 X147.12 Y77.746 E.97984
G1 X146.909 Y77.914 E.00848
G1 X146.837 Y77.999 E.00351
G1 X169.125 Y100.287 E.99246
G1 X169.125 Y100.823 E.01688
G1 X146.637 Y78.335 E1.00137
G1 X146.517 Y78.648 E.01058
G1 X146.517 Y78.75 E.0032
G1 X169.126 Y101.359 E1.00674
G1 X169.126 Y101.895 E.01688
G1 X146.516 Y79.285 E1.0068
G1 X146.516 Y79.82 E.01684
G1 X169.127 Y102.431 E1.00685
G1 X169.128 Y102.967 E.01688
G1 X146.515 Y80.355 E1.0069
G1 X146.515 Y80.89 E.01684
G1 X169.128 Y103.503 E1.00696
G1 X169.129 Y104.039 E.01688
G1 X146.514 Y81.425 E1.00701
G1 X146.513 Y81.96 E.01684
G1 X169.129 Y104.576 E1.00706
G1 X169.13 Y105.112 E.01688
G1 X146.513 Y82.495 E1.00712
G1 X146.512 Y83.03 E.01684
G1 X169.131 Y105.648 E1.00717
G1 X169.131 Y106.184 E.01688
G1 X146.512 Y83.564 E1.00722
G1 X146.511 Y84.099 E.01684
G1 X169.132 Y106.72 E1.00728
G1 X169.132 Y107.256 E.01688
G1 X146.511 Y84.634 E1.00733
G1 X146.51 Y85.169 E.01684
M73 P2 R50
G1 X169.133 Y107.792 E1.00738
G1 X169.134 Y108.328 E.01688
M73 P3 R50
M73 Q3 S51
G1 X146.509 Y85.704 E1.00744
G1 X146.509 Y86.239 E.01684
G1 X169.134 Y108.865 E1.00749
G1 X169.135 Y109.401 E.01688
G1 X146.508 Y86.774 E1.00754
G1 X146.508 Y87.309 E.01684
G1 X169.135 Y109.937 E1.0076
G1 X169.136 Y110.473 E.01688
G1 X146.507 Y87.844 E1.00765
G1 X146.506 Y88.379 E.01684
G1 X169.137 Y111.009 E1.0077
G1 X169.137 Y111.545 E.01688
G1 X146.506 Y88.914 E1.00775
G1 X146.505 Y89.449 E.01684
G1 X169.138 Y112.081 E1.00781
G1 X169.138 Y112.617 E.01688
M73 Q3 S50
G1 X146.505 Y89.984 E1.00786
G1 X146.504 Y90.519 E.01684
G1 X169.139 Y113.154 E1.00791
G1 X169.14 Y113.69 E.01688
G1 X146.503 Y91.053 E1.00797
G1 X146.503 Y91.588 E.01684
G1 X169.14 Y114.226 E1.00802
G1 X169.141 Y114.762 E.01688
G1 X146.502 Y92.123 E1.00807
G1 X146.502 Y92.658 E.01684
G1 X169.141 Y115.298 E1.00813
G1 X169.142 Y115.834 E.01688
G1 X146.501 Y93.193 E1.00818
G1 X146.5 Y93.728 E.01684
G1 X169.143 Y116.37 E1.00823
G1 X169.143 Y116.906 E.01688
G1 X146.5 Y94.263 E1.00829
G1 X146.499 Y94.798 E.01684
G1 X169.144 Y117.442 E1.00834
G1 X169.144 Y117.979 E.01688
G1 X146.499 Y95.333 E1.00839
G1 X146.498 Y95.868 E.01684
M73 P4 R50
M73 Q4 S50
G1 X169.145 Y118.515 E1.00845
G1 X169.146 Y119.051 E.01688
G1 X146.497 Y96.403 E1.0085
G1 X146.497 Y96.938 E.01684
G1 X169.146 Y119.587 E1.00855
G1 X169.147 Y120.123 E.01688
G1 X146.496 Y97.473 E1.00861
G1 X146.496 Y98.008 E.01684
G1 X169.147 Y120.659 E1.00866
G1 X169.148 Y121.195 E.01688
G1 X146.495 Y98.542 E1.00871
G1 X146.494 Y99.077 E.01684
G1 X169.149 Y121.731 E1.00877
G1 X169.149 Y122.268 E.01688
G1 X146.494 Y99.612 E1.00882
G1 X146.493 Y100.147 E.01684
G1 X169.15 Y122.804 E1.00887
G1 X169.15 Y123.34 E.01688
G1 X146.493 Y100.682 E1.00892
G1 X146.492 Y101.217 E.01684
G1 X169.151 Y123.876 E1.00898
G1 X169.152 Y124.412 E.01688
G1 X146.491 Y101.752 E1.00903
G1 X146.491 Y102.287 E.01684
G1 X169.152 Y124.948 E1.00908
G1 X169.153 Y125.484 E.01688
G1 X146.49 Y102.822 E1.00914
G1 X146.49 Y103.357 E.01684
G1 X169.153 Y126.02 E1.00919
G1 X169.154 Y126.557 E.01688
G1 X146.489 Y103.892 E1.00924
G1 X146.488 Y104.427 E.01684
G1 X169.155 Y127.093 E1.0093
G1 X169.155 Y127.629 E.01688
M73 P4 R49
G1 X146.488 Y104.962 E1.00935
G1 X146.487 Y105.497 E.01684
G1 X169.156 Y128.165 E1.0094
G1 X169.156 Y128.701 E.01688
M73 P5 R49
M73 Q5 S50
G1 X146.487 Y106.031 E1.00946
G1 X146.486 Y106.566 E.01684
G1 X169.157 Y129.237 E1.00951
G1 X169.158 Y129.773 E.01688
G1 X146.486 Y107.101 E1.00956
G1 X146.485 Y107.636 E.01684
G1 X169.158 Y130.309 E1.00962
G1 X169.159 Y130.846 E.01688
G1 X146.484 Y108.171 E1.00967
G1 X146.484 Y108.706 E.01684
G1 X169.159 Y131.382 E1.00972
G1 X169.16 Y131.918 E.01688
M73 Q5 S49
G1 X146.483 Y109.241 E1.00978
G1 X146.483 Y109.776 E.01684
G1 X169.123 Y132.416 E1.00814
G1 X169.072 Y132.669 E.00813
G1 X169.004 Y132.833 E.00558
G1 X146.482 Y110.311 E1.00287
G1 X146.481 Y110.846 E.01684
G1 X168.784 Y133.148 E.99311
G1 X168.581 Y133.333 E.00863
G1 X168.489 Y133.389 E.00339
G1 X146.481 Y111.381 E.98001
G1 X146.48 Y111.916 E.01684
G1 X168.112 Y133.547 E.96324
G1 X167.993 Y133.576 E.00385
G1 X167.63 Y133.601 E.01146
G1 X146.48 Y112.451 E.94179
G1 X146.479 Y112.986 E.01684
G1 X167.094 Y133.601 E.91797
G1 X166.558 Y133.601 E.01686
G1 X146.478 Y113.52 E.89415
G1 X146.478 Y114.055 E.01684
G1 X166.023 Y133.601 E.87033
G1 X165.487 Y133.601 E.01686
G1 X146.477 Y114.59 E.84651
G1 X146.477 Y115.125 E.01684
G1 X164.952 Y133.601 E.82269
G1 X164.416 Y133.601 E.01686
G1 X146.476 Y115.66 E.79887
G1 X146.475 Y116.195 E.01684
G1 X163.881 Y133.601 E.77505
G1 X163.345 Y133.601 E.01686
G1 X146.475 Y116.73 E.75123
G1 X146.474 Y117.265 E.01684
M73 P6 R49
M73 Q6 S49
G1 X162.81 Y133.601 E.72741
G1 X162.274 Y133.601 E.01686
G1 X146.474 Y117.8 E.70359
G1 X146.473 Y118.335 E.01684
G1 X161.739 Y133.601 E.67977
G1 X161.203 Y133.601 E.01686
G1 X146.472 Y118.87 E.65595
G1 X146.472 Y119.405 E.01684
G1 X160.668 Y133.601 E.63213
G1 X160.132 Y133.601 E.01686
G1 X146.471 Y119.94 E.60831
G1 X146.471 Y120.475 E.01684
G1 X159.597 Y133.601 E.58449
G1 X159.061 Y133.601 E.01686
G1 X146.47 Y121.009 E.56067
G1 X146.469 Y121.544 E.01684
G1 X158.526 Y133.601 E.53685
G1 X157.99 Y133.601 E.01686
G1 X146.469 Y122.079 E.51303
G1 X146.468 Y122.614 E.01684
G1 X157.455 Y133.601 E.48921
G1 X156.919 Y133.601 E.01686
G1 X146.468 Y123.149 E.46539
G1 X146.467 Y123.684 E.01684
G1 X156.383 Y133.601 E.44157
G1 X155.848 Y133.601 E.01686
G1 X146.466 Y124.219 E.41775
G1 X146.466 Y124.754 E.01684
G1 X155.312 Y133.601 E.39393
G1 X154.777 Y133.601 E.01686
G1 X146.465 Y125.289 E.37011
G1 X146.465 Y125.824 E.01684
G1 X154.241 Y133.601 E.34629
G1 X153.706 Y133.601 E.01686
G1 X146.464 Y126.359 E.32247
G1 X146.464 Y126.894 E.01684
G1 X153.17 Y133.601 E.29865
G1 X152.635 Y133.601 E.01686
G1 X146.463 Y127.429 E.27483
G1 X146.462 Y127.964 E.01684
G1 X152.099 Y133.601 E.25101
G1 X151.564 Y133.601 E.01686
G1 X146.462 Y128.499 E.22719
G1 X146.461 Y129.033 E.01684
G1 X151.028 Y133.601 E.20337
G1 X150.493 Y133.601 E.01686
G1 X146.461 Y129.568 E.17955
G1 X146.46 Y130.103 E.01684
G1 X149.957 Y133.601 E.15573
G1 X149.422 Y133.601 E.01686
G1 X146.459 Y130.638 E.13191
G1 X146.459 Y131.173 E.01684
G1 X148.886 Y133.601 E.10809
G1 X148.351 Y133.601 E.01686
G1 X146.458 Y131.708 E.08427
G1 X146.461 Y132.247 E.01696
G1 X147.804 Y133.59 E.05981
G1 X147.624 Y133.576 E.00569
G1 X147.417 Y133.526 E.00673
G1 X147.219 Y133.444 E.00674
G1 X147.036 Y133.333 E.00674
G1 X146.875 Y133.196 E.00666
G1 X146.379 Y132.7 E.0221
M204 S1000
; stop printing object case_bot.stl id:0 copy 0
; printing object case_lid.stl id:1 copy 0
;WIPE_START
G1 F8640
G1 X146.875 Y133.196 E-.16204
G1 X147.036 Y133.333 E-.04884
G1 X147.219 Y133.444 E-.04941
G1 X147.417 Y133.526 E-.0494
G1 X147.624 Y133.576 E-.04936
G1 X147.804 Y133.59 E-.04169
G1 X146.704 Y132.49 E-.35926
;WIPE_END
G1 E-.04 F2100
G1 Z.6 F720
G1 X122.318 Y118.705 F10800
G1 Z.2 F720
G1 E.8 F2100
M204 S800
;TYPE:Perimeter
;WIDTH:0.419999
G1 F1200
G1 X122.371 Y118.7 E.00166
G1 X122.61 Y118.597 E.00817
G1 X122.772 Y118.41 E.00775
G1 X122.839 Y118.143 E.00863
G1 X122.836 Y91.93 E.82189
G1 X122.744 Y91.673 E.00858
G1 X122.524 Y91.48 E.00916
G1 X122.274 Y91.422 E.00807
G1 X112.575 Y91.438 E.30411
G1 X111.952 Y91.554 E.01987
G1 X112.06 Y90.816 E.0234
G1 X112.083 Y90.299 E.01622
G1 X112.085 Y78.488 E.37032
G1 X112.095 Y78.236 E.00791
G1 X112.18 Y77.636 E.019
G1 X112.411 Y76.986 E.02163
G1 X112.803 Y76.419 E.02162
G1 X113.303 Y75.945 E.02161
G1 X113.909 Y75.617 E.0216
G1 X114.57 Y75.422 E.0216
G1 X115.07 Y75.382 E.01573
G1 X134.617 Y75.386 E.61287
G1 X135.201 Y75.408 E.01832
M73 P6 R48
G1 X135.877 Y75.533 E.02154
G1 X136.499 Y75.83 E.02162
G1 X137.044 Y76.247 E.02152
G1 X137.462 Y76.789 E.02146
G1 X137.682 Y77.223 E.01526
G1 X137.859 Y77.816 E.0194
G1 X137.918 Y78.556 E.02329
G1 X137.911 Y131.441 E1.65816
G1 X137.894 Y131.786 E.01081
G1 X137.811 Y132.388 E.01905
G1 X137.583 Y133.037 E.02157
G1 X137.194 Y133.605 E.02158
G1 X136.695 Y134.079 E.02159
G1 X136.091 Y134.409 E.0216
G1 X135.43 Y134.605 E.0216
G1 X134.93 Y134.644 E.01573
G1 X115.197 Y134.648 E.6187
G1 X114.948 Y134.639 E.00781
G1 X114.345 Y134.555 E.0191
G1 X113.695 Y134.324 E.02163
G1 X113.127 Y133.933 E.02163
G1 X112.653 Y133.432 E.02162
G1 X112.325 Y132.826 E.02162
G1 X112.13 Y132.165 E.02161
G1 X112.092 Y131.663 E.01576
G1 X112.083 Y119.687 E.3755
G1 X112.045 Y119.132 E.01745
G1 X111.949 Y118.543 E.0187
G1 X112.617 Y118.64 E.02115
G1 X113.299 Y118.704 E.02147
G1 X122.258 Y118.709 E.28092
M204 S1000
;WIPE_START
G1 F8640
G1 X122.371 Y118.7 E-.0261
G1 X122.61 Y118.597 E-.06017
G1 X122.772 Y118.41 E-.05708
